X:1
T:Bonaparte Crossing the Rhine
M:4/4
L:1/16
R:Reel
K:Dmaj
V:2 clef=alto middle=C
F,2G,2 | "D"A,3B, A,2F,2 A,4 D2E2 | F3E F2A2 D4 D2C2 | "G"B,3C D2B,2 "D"A,2F,2 D,2F,2 | "A7"E,4 E,2F,2 E,4 F,2G,2 |
"D"A,3B, A,2F,2 A,4 D2E2 | F3E F2A2 D4 D2C2 |"G"B,3C D2B,2 "D"A,3F, D,2F,2 | "A7"E,4 D,4 "D"D,4 D2E2 ||
"D"F3E F2G2 "A7"A4 A4 | "G"B,3A, B,2C2 "D"D4 D4 |"G"B,3C D2B,2 "D"A,2F,2 D,2F,2 | "A7"E,4 E,3F, E,4 F,2G,2 |
"D"A,3B, A,2F,2 A,4 D2E2 | F3E F2A2 D4 D2C2 | "G"B,3C D2B,2 "D"A,3F, D,2F,2 | "A7"E,4 D,4 "D"D,4 |]
